!!!OTL: Steal Away
!!!ARE: United States of America
!!!AGN: Negro Spiritual
!!!AMD: Pentatonic
**kern
=1-
*clefG2
*k[b-]
*met(C)
*M4/4
*MM60
{4.f/
8f/
2f/
=2
4.a/
8a/
2a/
=3
4.cc\
8cc\
4cc\
4dd\
=4
4g/
2.a/}
=5
{4.f/
8f/
2f/
=6
8.dd\L
16cc\Jk
4a/
4.cc;\}
{8f/
=7
4f/
4f/
4.a/
8a/
=8
4g/
2.f/}
=9
{2dd\
4.dd\
8cc\
=10
4dd\
2cc\}
{4a/
=11
4.cc\
8a/
4.cc\
8a/
=12
4cc\
2a/}
{4f/
=13
4a/
4cc\
4.cc\
8cc\
=14
8dd\L
8cc\J
4a/
4.cc\}
{8f/
=15
4f/
4f/
4.a/
8a/
=16
4g/
2.f/}
==
*-
